!!!!SEGMENT: pl-wnifc--13846--053_anonim--piesni-polskie-i-ruskie-ludu-galicyjskiego-53-parobcy-krakoscy.krn
!!!kernsource:
!!!cenid: 18xx:3275
!!!COM: Anonim
!!!COM-rismid: pe30004985
!!!CDT:
!!!CNT:
!!!GTL: Pieśni polskie i ruskie ludu galicyjskiego
!!!OTL: 53. Parobcy krakoscy
!!!PDT: 1833
!!!AGN:
!!!SMS-siglum: PL-Wnifc
!!!SMS-shelfmark: 13846
!!!SMS-shelfwork: 053 G
!!!NIFC-rismid: 1001037060
!!!URL-scan: http://repozytorium.nifc.pl/skany/pl-wnifc-nut--13846
!!!ONB-nifc:
!!!key: G
**kern	**kern	**dynam	**kern	**text
*part2	*part2	*part2	*part1	*part1
*group2	*group2	*	*group1	*group1
*staff3	*staff2	*	*staff1	*staff1
*I"[Fortepian.]	*I"[Fortepian.]	*	*I"[Głos.]	*
*Ipiano	*Ipiano	*	*Ivox	*
*ICklav	*ICklav	*	*ICvox	*
*IGacmp	*IGacmp	*	*IGsolo	*
*clefF4	*clefG2	*	*clefG2	*
*k[f#]	*k[f#]	*	*k[f#]	*
*G:	*G:	*	*G:	*
*M2/4	*M2/4	*	*M2/4	*
=1-	=1-	=1-	=1-	=1-
!	!	!	!LO:TX:a:t=D.b.B.\n665.	!
!	!	!	!LO:TX:a:t=Krakowiak.	!
4DD/	8f#/L	.	8f#/	Pa-
.	8a/	.	8a/	-rob-
4A\ 4F#\ 4D\	8.cc\	.	(8.cc\	-cy
.	16ee\Jk	.	16ee\)	.
=2	=2	=2	=2	=2
4GG/	8dd\	.	8dd\	kra-
.	4b^<\	.	4b\	-ko-
4B\ 4G\ 4D\	.	.	.	.
.	8dd\	.	8dd\	-scy
=3	=3	=3	=3	=3
.	8qdd/	.	8qdd/	.
4DD/	(16cc\LL	.	(16cc\LL	za
.	16b\JJ)	.	16b\JJ)	.
.	16cc\LL	.	16cc\LL	nic
.	16a\JJ	.	16a\JJ	.
!!pagebreak:original
=-	=-	=-	=-	=-
4c\ 4A\ 4D\	8.f#/L	.	8.f#/	so-
.	16a/Jk	.	16a/	-bie
=4	=4	=4	=4	=4
4GG/	8g/	.	8g/	ma-
!	!	!LO:DY:rj	!	!
.	4b\^<	sf	(>4b\	-ją
4B\ 4G\ 4D\	.	.	.	.
.	8dd\	.	8dd\)	.
=5	=5	=5	=5	=5
4DD/	8.f#/L	.	8.f#/	próż-
.	16a/Jk	.	(16a/	-no
.	8qdd/	.	8qdd/)	.
4A\ 4F#\ 4D\	(16cc\LL	.	(16cc\LL	dziéw-
.	16b\	.	16b\	.
.	16cc\	.	16cc\	.
.	16ee\JJ)	.	16ee\JJ)	.
!!linebreak:original
=6	=6	=6	=6	=6
4GG/	8dd\	.	8dd\	-ki
.	4b\	.	4b\	łu-
4B\ 4G\ 4D\	.	.	.	.
.	8dd\	.	8dd\	-dzić,
=7	=7	=7	=7	=7
.	8qdd/	.	8qdd/	.
4DD/	(16cc\LL	.	(16cc\LL	cho-
.	16b\	.	16b\JJ)	.
.	16cc\)	.	(16cc\LL	-ciaz
.	16a/JJ	.	16a\JJ)	.
4c\ 4A\ 4D\	8.f#/L	.	8.f#/L	nie
.	16a/Jk	.	16a/Jk	ko-
=8	=8	=8	=8	=8
4GG/	(16a/LL	.	(16a/LL	-cha-
.	16g/JJ)	.	16g/JJ)	.
.	4g/	.	4g/	-ją;
4B\ 4G\ 4D\	.	.	.	.
.	8r	.	8r	.
=9!|:	=9!|:	=9!|:	=9!|:	=9!|:
4C/	8cc\'L	.	8cc\	I
.	8ee\'J	.	8ee\	Wa-
4e\ 4c\ 4G\	8.gg\L	.	(8.gg\L	-lek
.	16ee\Jk	.	16ee\Jk)	.
!!linebreak:original
=10	=10	=10	=10	=10
4GG/	8dd\	.	8dd\	nie
.	4b\^<	.	4b\	sta-
4d\ 4B\ 4G\	.	.	.	.
.	8dd\	.	8dd\	-tek
=11	=11	=11	=11	=11
!	!	!	!LO:SIC:v:s=8qdd/	!
.	8qdd/	.	8qcc/	.
4DD/	16cc\LL	.	(16cc\LL	Zoś-
.	16b\	.	16b\JJ)	.
.	16cc\	.	(16cc\LL	-kę
.	16a/JJ	.	16a\JJ)	.
4c\ 4A\ 4D\	8.f#/L	.	8.f#/L	ba-
.	16a/Jk	.	16a/Jk	-ła-
=12	=12	=12	=12	=12
4FFF#/	8g/	.	8g/	-mu-
.	4b/	.	(>4b/	-ci,
4B\ 4G\ 4D\	.	.	.	.
.	8g/	.	8g/)	.
=13	=13	=13	=13	=13
4CC/	16cc\LL	.	(16cc\LL	cnot-
.	16dd\	.	16dd\)	.
.	16ee\	.	(16ee\	-kę
.	16ff#\JJ	.	16ff#\JJ)	.
4e\ 4c\ 4G\	8.gg\L	.	(8.gg\L	jej
.	16ee\Jk	.	16ee\Jk)	.
!!linebreak:original
=14	=14	=14	=14	=14
4GG/	8dd\	.	8dd\	na-
.	4b\^<	.	4b\	-ru-
4d\ 4B\ 4G\	.	.	.	.
.	8dd\	.	8dd\	-sy,
=15	=15	=15	=15	=15
.	(8qdd/	.	(8qdd/	a
4DD/	16cc\LL)	.	16cc\LL)	a
.	16b\	.	16b\JJ)	.
.	16cc\)	.	(16cc\LL	po-
.	16a/|JJ	.	16a\JJ)	.
4c\ 4A\ 4D\	8.f#/L	.	8.f#/L	-tem
.	16a/Jk	.	16a/Jk	po-
=16	=16	=16	=16	=16
*^	*	*	*	*
4GG/	4ryy	(16a/LL	.	16a/LL	-zu-
.	.	16g/JJ)	.	16g/JJ	.
.	.	4g/	.	4g/	-ci.
4B\ 4G\	4B/	.	.	.	.
.	.	8r	.	8r	.
*v	*v	*	*	*	*
=:|!	=:|!	=:|!	=:|!	=:|!
*-	*-	*-	*-	*-
!!!system-decoration: g1{g2}
!!!RDF**kern: > = above
!!!RDF**kern: < = below
!!!RDF**kern: | = vertical stroke
!!!ENC: Katarzyna Serwa
!!!END: 2021-11-10
!!!ENC: Emilia Ziętek
